findly-builder/apps/searchassist/src/assets/icons/help-annotation.svg

<svg width="15" height="15" viewBox="0 0 15 15" fill="none" xmlns="http://www.w3.org/2000/svg">
<path d="M4.80658 5.58548C4.80658 3.59297 6.78338 2.68549 8.23893 3.40576C9.15837 3.86074 9.71897 4.95101 9.53448 5.84357C9.39741 6.50674 9.11062 6.89466 8.53197 7.36779L8.30875 7.54484C7.74375 7.98809 7.58509 8.21782 7.58509 8.75003C7.58509 9.00796 7.376 9.21704 7.11808 9.21704C6.86016 9.21704 6.65107 9.00796 6.65107 8.75003C6.65107 7.91231 6.93193 7.46155 7.6147 6.90398L7.83497 6.72944C8.33694 6.33473 8.5285 6.09619 8.6198 5.65451C8.71659 5.18621 8.37041 4.51294 7.82468 4.24289C6.93948 3.80486 5.74061 4.35522 5.74061 5.58548C5.74061 5.8434 5.53152 6.05249 5.2736 6.05249C5.01567 6.05249 4.80658 5.8434 4.80658 5.58548Z" fill="#5F6368"/>
<path d="M7.72541 10.4926C7.72541 10.8069 7.47058 11.0617 7.15624 11.0617C6.84189 11.0617 6.58707 10.8069 6.58707 10.4926C6.58707 10.1782 6.84189 9.92339 7.15624 9.92339C7.47058 9.92339 7.72541 10.1782 7.72541 10.4926Z" fill="#5F6368"/>
<path fill-rule="evenodd" clip-rule="evenodd" d="M7.11111 0C3.18375 0 0 3.18375 0 7.11111C0 11.0385 3.18375 14.2222 7.11111 14.2222C11.0385 14.2222 14.2222 11.0385 14.2222 7.11111C14.2222 3.18375 11.0385 0 7.11111 0ZM7.11111 1.0535C10.4566 1.0535 13.1687 3.76558 13.1687 7.11111C13.1687 10.4566 10.4566 13.1687 7.11111 13.1687C3.76558 13.1687 1.0535 10.4566 1.0535 7.11111C1.0535 3.76558 3.76558 1.0535 7.11111 1.0535Z" fill="#5F6368"/>
</svg>

<svg width="15" height="15" fill="none" xmlns="http://www.w3.org/2000/svg"><path d="M4.807 5.585c0-1.992 1.976-2.9 3.432-2.18.92.456 1.48 1.546 1.295 2.439-.137.663-.423 1.05-1.002 1.524l-.223.177c-.565.443-.724.673-.724 1.205a.467.467 0 1 1-.934 0c0-.838.28-1.288.964-1.846l.22-.175c.502-.394.693-.633.785-1.074.097-.469-.25-1.142-.795-1.412-.886-.438-2.084.112-2.084 1.342a.467.467 0 0 1-.934 0Zm2.918 4.908a.57.57 0 1 1-1.138 0 .57.57 0 0 1 1.138 0Z" fill="#5F6368"/><path fill-rule="evenodd" clip-rule="evenodd" d="M7.111 0a7.111 7.111 0 1 0 0 14.222A7.111 7.111 0 0 0 7.111 0Zm0 1.054a6.058 6.058 0 1 1 0 12.115 6.058 6.058 0 0 1 0-12.116Z" fill="#5F6368"/></svg>
